X: 8792
T: Cuckoo's Nest, The
R: barndance
M: 4/4
K: Ddorian
|:FGFE D2 d2|A2 GF G2 DE|F2 ED CD E2|1 F2 G2 D4:|2 F2 D2 D4||
|:d2 d2 d2 ed|^c2 A2 A3 B|=c2 c2 c2 dc|BcBA A4|
FGFE D2 d2|A2 GF G2 DE|F2 ED CD E2|F2 D2 D4:|

